X:7003
T:Galway Hornpipe
T:McDermott's No.1
R:Hornpipe
C:Trad.
O:Ireland
M:4/4
L:1/8
Q:1/8=240
K:D
FE|"D"D2 FA dAFD|"C"=CDEF G2 FE|"D"D2 FA dcdf|"A"edcB AGFE|
"D"D2 FA dAFD|"C"=CDEF G2FG|"A"AdcB AGFE|"D"D2 CE D2:|
|:de|"D"f2 fg fedc|"G"BABc B2 Bd|"E"e2 ef edcB|"A"A2 ce a2 AB|
"D"d2 df edAF|"G"GFGA BdcB|"A"AdcB AGFE|"D"D2 CE D2:|

